modules/coreui-icons-brand/icons/digg.svg

<svg version="1.1" xmlns="http://www.w3.org/2000/svg" width="32" height="32" viewBox="0 0 32 32">
<title>digg</title>
<path d="M23.683 10.88v10.88h5.12v1.281h-5.12v2.557h8.317v-14.719zM14.079 10.88v10.88h5.119v1.281h-5.119v2.557h8.323v-14.719zM5.12 6.401v4.479h-5.12v10.88h8.317v-15.359zM12.803 10.88h-3.204v10.88h3.204zM28.803 19.197h-1.923v-5.76h1.923zM5.12 19.197h-1.923v-5.76h1.923zM19.197 19.197h-1.916v-5.76h1.916zM12.803 6.401h-3.204v3.197h3.204z"></path>
</svg>

<svg xmlns="http://www.w3.org/2000/svg" width="32" height="32" viewBox="0 0 32 32"><path d="M23.683 10.88v10.88h5.12v1.281h-5.12v2.557H32V10.879zm-9.604 0v10.88h5.119v1.281h-5.119v2.557h8.323V10.879zM5.12 6.401v4.479H0v10.88h8.317V6.401zm7.683 4.479H9.599v10.88h3.204zm16 8.317H26.88v-5.76h1.923zm-23.683 0H3.197v-5.76H5.12zm14.077 0h-1.916v-5.76h1.916zM12.803 6.401H9.599v3.197h3.204z"/></svg>
